svgs/duotone/cloud-snow.svg

<svg xmlns="http://www.w3.org/2000/svg" viewBox="0 0 512 512"><!--! Font Awesome Pro 6.1.1 by @fontawesome - https://fontawesome.com License - https://fontawesome.com/license (Commercial License) Copyright 2022 Fonticons, Inc. --><defs><style>.fa-secondary{opacity:.4}</style></defs><path class="fa-primary" d="M96 320h320c53 0 96-43 96-96s-43-96-96-96c-.625 0-1.125 .25-1.625 .25C415.5 123 416 117.6 416 112C416 67.75 380.3 32 336 32c-24.62 0-46.25 11.25-61 28.75C256.4 24.75 219.3 0 176 0C114.1 0 64 50.13 64 112c0 7.25 .75 14.25 2.125 21.25C27.75 145.8 0 181.5 0 224C0 277 43 320 96 320z"/><path class="fa-secondary" d="M104 392h-16v-16C88 362.8 77.25 352 64 352s-24 10.75-24 24v16h-16C10.75 392 0 402.8 0 416s10.75 24 24 24h16v16C40 469.3 50.75 480 64 480s24-10.75 24-24v-16h16C117.3 440 128 429.3 128 416S117.3 392 104 392zM488 392h-16v-16c0-13.25-10.75-24-24-24s-24 10.75-24 24v16h-16C394.8 392 384 402.8 384 416s10.75 24 24 24h16v16c0 13.25 10.75 24 24 24s24-10.75 24-24v-16h16c13.25 0 24-10.75 24-24S501.3 392 488 392zM296 424h-16v-16c0-13.25-10.75-24-24-24s-24 10.75-24 24v16h-16C202.8 424 192 434.8 192 448s10.75 24 24 24h16v16C232 501.3 242.8 512 256 512s24-10.75 24-24v-16h16c13.25 0 24-10.75 24-24S309.3 424 296 424z"/></svg>

<svg xmlns="http://www.w3.org/2000/svg" viewBox="0 0 512 512"><!--! Font Awesome Pro 6.5.1 by @fontawesome - https://fontawesome.com License - https://fontawesome.com/license (Commercial License) Copyright 2023 Fonticons, Inc. --><defs><style>.fa-secondary{opacity:.4}</style></defs><path class="fa-secondary" d="M88 376c0-13.3-10.7-24-24-24s-24 10.7-24 24v16H24c-13.3 0-24 10.7-24 24s10.7 24 24 24H40v16c0 13.3 10.7 24 24 24s24-10.7 24-24V440h16c13.3 0 24-10.7 24-24s-10.7-24-24-24H88V376zm192 32c0-13.3-10.7-24-24-24s-24 10.7-24 24v16H216c-13.3 0-24 10.7-24 24s10.7 24 24 24h16v16c0 13.3 10.7 24 24 24s24-10.7 24-24V472h16c13.3 0 24-10.7 24-24s-10.7-24-24-24H280V408zm168-56c-13.3 0-24 10.7-24 24v16H408c-13.3 0-24 10.7-24 24s10.7 24 24 24h16v16c0 13.3 10.7 24 24 24s24-10.7 24-24V440h16c13.3 0 24-10.7 24-24s-10.7-24-24-24H472V376c0-13.3-10.7-24-24-24z"/><path class="fa-primary" d="M0 224c0 53 43 96 96 96H416c53 0 96-43 96-96s-43-96-96-96c-.5 0-1.1 0-1.6 0c1.1-5.2 1.6-10.5 1.6-16c0-44.2-35.8-80-80-80c-24.3 0-46.1 10.9-60.8 28C256.5 24.3 219.1 0 176 0C114.1 0 64 50.1 64 112c0 7.1 .7 14.1 1.9 20.8C27.6 145.4 0 181.5 0 224z"/></svg>
